X: 17142
T: Hello Again
R: hornpipe
M: 4/4
K: Fmajor
e|fecB A/B/c fg|f/e/c BG AB GF|fecB A/B/c fg|abge fece|
fecB A/B/c fg|f/e/c BG AB GA|FG A/B/c fecB|A/B/c BG Fffe:|
|:fgab gecf|fgaf gabg|fgab fecB|A/B/cfe c2 ce|
fgab gecf|fgab c'2c'a|bgc'b afec|A/B/c BG Fffe:|

